images/types-calculator.svg

<svg width="18" height="21" viewBox="0 0 18 21" fill="none" xmlns="http://www.w3.org/2000/svg">
<path d="M17.25 7.0625V1.5625C17.25 0.80625 16.6313 0.1875 15.875 0.1875H2.125C1.36875 0.1875 0.75 0.80625 0.75 1.5625V7.0625H17.25ZM2.8125 2.25C2.8125 1.87188 3.12188 1.5625 3.5 1.5625H14.5C14.8781 1.5625 15.1875 1.87188 15.1875 2.25V5C15.1875 5.37813 14.8781 5.6875 14.5 5.6875H3.5C3.12188 5.6875 2.8125 5.37813 2.8125 5V2.25ZM0.75 7.75V19.4375C0.75 20.1938 1.36875 20.8125 2.125 20.8125H15.875C16.6313 20.8125 17.25 20.1938 17.25 19.4375V7.75H0.75ZM3.84375 18.75C3.2745 18.75 2.8125 18.288 2.8125 17.7188C2.8125 17.1495 3.2745 16.6875 3.84375 16.6875C4.413 16.6875 4.875 17.1495 4.875 17.7188C4.875 18.288 4.413 18.75 3.84375 18.75ZM3.84375 15.3125C3.2745 15.3125 2.8125 14.8505 2.8125 14.2812C2.8125 13.712 3.2745 13.25 3.84375 13.25C4.413 13.25 4.875 13.712 4.875 14.2812C4.875 14.8505 4.413 15.3125 3.84375 15.3125ZM3.84375 11.875C3.2745 11.875 2.8125 11.413 2.8125 10.8438C2.8125 10.2745 3.2745 9.8125 3.84375 9.8125C4.413 9.8125 4.875 10.2745 4.875 10.8438C4.875 11.413 4.413 11.875 3.84375 11.875ZM7.28125 18.75C6.712 18.75 6.25 18.288 6.25 17.7188C6.25 17.1495 6.712 16.6875 7.28125 16.6875C7.8505 16.6875 8.3125 17.1495 8.3125 17.7188C8.3125 18.288 7.8505 18.75 7.28125 18.75ZM7.28125 15.3125C6.712 15.3125 6.25 14.8505 6.25 14.2812C6.25 13.712 6.712 13.25 7.28125 13.25C7.8505 13.25 8.3125 13.712 8.3125 14.2812C8.3125 14.8505 7.8505 15.3125 7.28125 15.3125ZM7.28125 11.875C6.712 11.875 6.25 11.413 6.25 10.8438C6.25 10.2745 6.712 9.8125 7.28125 9.8125C7.8505 9.8125 8.3125 10.2745 8.3125 10.8438C8.3125 11.413 7.8505 11.875 7.28125 11.875ZM10.7188 18.75C10.1495 18.75 9.6875 18.288 9.6875 17.7188C9.6875 17.1495 10.1495 16.6875 10.7188 16.6875C11.288 16.6875 11.75 17.1495 11.75 17.7188C11.75 18.288 11.288 18.75 10.7188 18.75ZM10.7188 15.3125C10.1495 15.3125 9.6875 14.8505 9.6875 14.2812C9.6875 13.712 10.1495 13.25 10.7188 13.25C11.288 13.25 11.75 13.712 11.75 14.2812C11.75 14.8505 11.288 15.3125 10.7188 15.3125ZM10.7188 11.875C10.1495 11.875 9.6875 11.413 9.6875 10.8438C9.6875 10.2745 10.1495 9.8125 10.7188 9.8125C11.288 9.8125 11.75 10.2745 11.75 10.8438C11.75 11.413 11.288 11.875 10.7188 11.875ZM15.1875 17.7188C15.1875 18.2887 14.7262 18.75 14.1562 18.75C13.5863 18.75 13.125 18.2887 13.125 17.7188V14.2812C13.125 13.7113 13.5863 13.25 14.1562 13.25C14.7262 13.25 15.1875 13.7113 15.1875 14.2812V17.7188ZM14.1562 11.875C13.587 11.875 13.125 11.413 13.125 10.8438C13.125 10.2745 13.587 9.8125 14.1562 9.8125C14.7255 9.8125 15.1875 10.2745 15.1875 10.8438C15.1875 11.413 14.7255 11.875 14.1562 11.875Z" fill="white"/>
</svg>

<svg width="18" height="21" fill="none" xmlns="http://www.w3.org/2000/svg"><path d="M17.25 7.063v-5.5c0-.757-.619-1.375-1.375-1.375H2.125C1.369.188.75.805.75 1.563v5.5h16.5zM2.812 2.25a.69.69 0 01.688-.688h11a.69.69 0 01.688.688V5a.69.69 0 01-.688.688h-11A.69.69 0 012.812 5V2.25zM.75 7.75v11.688a1.38 1.38 0 001.375 1.375h13.75a1.38 1.38 0 001.375-1.375V7.75H.75zm3.094 11a1.032 1.032 0 110-2.063 1.032 1.032 0 010 2.063zm0-3.438a1.032 1.032 0 110-2.063 1.032 1.032 0 010 2.063zm0-3.437a1.032 1.032 0 110-2.063 1.032 1.032 0 010 2.063zM7.28 18.75a1.032 1.032 0 11.001-2.063 1.032 1.032 0 010 2.063zm0-3.438a1.032 1.032 0 11.001-2.063 1.032 1.032 0 010 2.063zm0-3.437a1.032 1.032 0 11.001-2.063 1.032 1.032 0 010 2.063zm3.438 6.875a1.032 1.032 0 110-2.063 1.032 1.032 0 010 2.063zm0-3.438a1.032 1.032 0 110-2.063 1.032 1.032 0 010 2.063zm0-3.437a1.032 1.032 0 110-2.063 1.032 1.032 0 010 2.063zm4.469 5.844a1.03 1.03 0 11-2.063 0V14.28a1.03 1.03 0 112.063 0v3.438zm-1.032-5.844a1.032 1.032 0 11.001-2.063 1.032 1.032 0 010 2.063z" fill="#fff"/></svg>
